X:378
T:Banjo Therapy
M:C|
C:© Paul Gitlitz 2015 revised 2018
N:Dave Nerad
K:D
"D"D4F4|A^GAB "A"A2e2|"D"f4d4|"Bm"BABd "A"A2f2|!
"F#m"a4f4|"Bm"edef edBA|"D"dBAF "A"EDEF|1"D"D4- D2FE:|2"D"D4- D2 AF|!
|:"A"E2EF A2AB|AFEF "D"D2AB|"Em"e2ef edBA|e3f edBG|!
"A"E2EF A2AB|AFEF "D"d2de|"A"fded BABc|1"D"d4- d2AF:|2"D"d8|]
W:For Dave Nerad
